images/Background.svg

<?xml version="1.0" encoding="utf-8"?>
<!-- Generator: Adobe Illustrator 20.1.0, SVG Export Plug-In . SVG Version: 6.00 Build 0)  -->
<svg version="1.2" baseProfile="tiny" id="Layer_1" xmlns="http://www.w3.org/2000/svg" xmlns:xlink="http://www.w3.org/1999/xlink"
	 x="0px" y="0px" viewBox="0 0 916 535.3" overflow="scroll" xml:space="preserve">
<title>Background</title>
<line fill="none" stroke="#001928" stroke-width="4" stroke-miterlimit="10" x1="451" y1="242.9" x2="515.8" y2="206.5"/>
<line fill="none" stroke="#001928" stroke-width="4" stroke-miterlimit="10" x1="381.6" y1="104.3" x2="321" y2="48.3"/>
<line fill="none" stroke="#001928" stroke-width="4" stroke-miterlimit="10" x1="376.3" y1="188.3" x2="381.6" y2="104.3"/>
<line fill="none" stroke="#001928" stroke-width="4" stroke-miterlimit="10" x1="451" y1="242.9" x2="376.3" y2="188.3"/>
<line fill="none" stroke="#001928" stroke-width="4" stroke-miterlimit="10" x1="315.5" y1="216.2" x2="376.3" y2="188.3"/>
<ellipse transform="matrix(6.226794e-02 -0.9981 0.9981 6.226794e-02 164.9574 552.1777)" fill="#001928" cx="376.3" cy="188.3" rx="21.5" ry="21.5"/>
<path fill="#062842" d="M361.6,187.3c0.5-8.2,7.5-14.4,15.7-13.9c8.2,0.5,14.4,7.5,13.9,15.7c-0.5,8.2-7.5,14.4-15.7,13.9
	c0,0,0,0,0,0C367.3,202.5,361.1,195.4,361.6,187.3z M386.1,188.8c0.3-5.4-3.7-10-9.1-10.3c-5.4-0.3-10,3.7-10.3,9.1
	c-0.3,5.3,3.7,10,9.1,10.3C381.2,198.2,385.8,194.1,386.1,188.8z"/>
<ellipse transform="matrix(6.226794e-02 -0.9981 0.9981 6.226794e-02 253.7964 478.7543)" fill="#001928" cx="381.7" cy="104.3" rx="15.3" ry="15.3"/>
<ellipse transform="matrix(6.226794e-02 -0.9981 0.9981 6.226794e-02 180.4731 677.881)" fill="#001928" cx="451" cy="242.9" rx="15.3" ry="15.3"/>
<ellipse transform="matrix(6.226794e-02 -0.9981 0.9981 6.226794e-02 80.0362 517.698)" fill="#001928" cx="315.5" cy="216.3" rx="15.3" ry="15.3"/>
<ellipse transform="matrix(6.226794e-02 -0.9981 0.9981 6.226794e-02 252.7924 365.655)" fill="#001928" cx="321" cy="48.3" rx="9.2" ry="9.2"/>
<ellipse transform="matrix(6.226794e-02 -0.9981 0.9981 6.226794e-02 277.5695 708.5288)" fill="#001928" cx="515.8" cy="206.6" rx="9.2" ry="9.2"/>
<line fill="none" stroke="#001928" stroke-width="4" stroke-miterlimit="10" x1="665.3" y1="415" x2="624.6" y2="488.4"/>
<line fill="none" stroke="#001928" stroke-width="4" stroke-miterlimit="10" x1="814.1" y1="507.1" x2="905.6" y2="524.9"/>
<line fill="none" stroke="#001928" stroke-width="4" stroke-miterlimit="10" x1="769.4" y1="423.2" x2="814.1" y2="507.1"/>
<line fill="none" stroke="#001928" stroke-width="4" stroke-miterlimit="10" x1="665.3" y1="415" x2="769.4" y2="423.2"/>
<line fill="none" stroke="#001928" stroke-width="4" stroke-miterlimit="10" x1="811.3" y1="360.3" x2="769.4" y2="423.2"/>
<ellipse transform="matrix(0.882 -0.4712 0.4712 0.882 -108.6279 412.444)" fill="#001928" cx="769.4" cy="423.2" rx="24.2" ry="24.2"/>
<path fill="#062842" d="M784.1,415.5c4.4,8.2,1.3,18.3-6.9,22.6c-8.2,4.4-18.3,1.3-22.6-6.9c-4.4-8.2-1.3-18.3,6.9-22.6
	C769.7,404.3,779.8,407.4,784.1,415.5z M759.7,428.5c2.8,5.4,9.5,7.4,14.9,4.6c5.4-2.8,7.4-9.5,4.6-14.9s-9.5-7.4-14.9-4.6
	c0,0,0,0-0.1,0C758.9,416.5,756.8,423.2,759.7,428.5L759.7,428.5z"/>
<ellipse transform="matrix(0.882 -0.4712 0.4712 0.882 -142.8728 443.3759)" fill="#001928" cx="814.1" cy="507" rx="17.3" ry="17.3"/>
<ellipse transform="matrix(0.882 -0.4712 0.4712 0.882 -117.0418 362.4285)" fill="#001928" cx="665.3" cy="415" rx="17.3" ry="17.3"/>
<ellipse transform="matrix(0.882 -0.4712 0.4712 0.882 -74.0592 424.7382)" fill="#001928" cx="811.3" cy="360.3" rx="17.3" ry="17.3"/>
<ellipse transform="matrix(0.882 -0.4712 0.4712 0.882 -140.485 488.5925)" fill="#001928" cx="905.6" cy="524.9" rx="10.4" ry="10.4"/>
<ellipse transform="matrix(0.882 -0.4712 0.4712 0.882 -156.4152 351.8852)" fill="#001928" cx="624.6" cy="488.3" rx="10.4" ry="10.4"/>
<line fill="none" stroke="#001928" stroke-width="4" stroke-miterlimit="10" x1="735" y1="81.8" x2="696.5" y2="11.6"/>
<line fill="none" stroke="#001928" stroke-width="4" stroke-miterlimit="10" x1="777.4" y1="234.2" x2="689.3" y2="293"/>
<line fill="none" stroke="#001928" stroke-width="4" stroke-miterlimit="10" x1="814.9" y1="144.3" x2="735" y2="81.8"/>
<line fill="none" stroke="#001928" stroke-width="4" stroke-miterlimit="10" x1="814.9" y1="144.3" x2="832.3" y2="64.8"/>
<line fill="none" stroke="#001928" stroke-width="4" stroke-miterlimit="10" x1="814.9" y1="144.3" x2="777.4" y2="234.2"/>
<line fill="none" stroke="#001928" stroke-width="4" stroke-miterlimit="10" x1="814.9" y1="144.3" x2="887.5" y2="217.5"/>
<ellipse transform="matrix(0.9563 -0.2925 0.2925 0.9563 -6.5725 244.6973)" fill="#001928" cx="814.9" cy="144.3" rx="25.5" ry="25.6"/>
<path fill="#062842" d="M809.9,127.5c9.3-2.9,19.2,2.4,22,11.7c2.9,9.3-2.4,19.2-11.7,22s-19.2-2.4-22-11.7c0,0,0,0,0,0
	C795.4,140.2,800.6,130.4,809.9,127.5z M818.4,155.5c6.1-1.9,9.5-8.3,7.7-14.4s-8.3-9.5-14.4-7.7c-6.1,1.9-9.5,8.3-7.7,14.4
	c0,0,0,0,0,0C805.9,153.9,812.3,157.3,818.4,155.5z"/>
<ellipse transform="matrix(0.9563 -0.2925 0.2925 0.9563 8.3961 218.5035)" fill="#001928" cx="734.8" cy="81.2" rx="18.3" ry="18.3"/>
<ellipse transform="matrix(0.9563 -0.2925 0.2925 0.9563 17.4534 246.2979)" fill="#001928" cx="832.2" cy="64.8" rx="18.3" ry="18.3"/>
<ellipse transform="matrix(0.9563 -0.2925 0.2925 0.9563 27.2574 204.1862)" fill="#001928" cx="696.3" cy="11" rx="11" ry="10.9"/>
<ellipse transform="matrix(0.9563 -0.2925 0.2925 0.9563 -24.8126 269.1327)" fill="#001928" cx="887.5" cy="217.5" rx="18.3" ry="18.3"/>
<ellipse transform="matrix(0.9563 -0.2925 0.2925 0.9563 -34.5212 237.6579)" fill="#001928" cx="777.4" cy="234.3" rx="18.3" ry="18.3"/>
<ellipse transform="matrix(0.9563 -0.2925 0.2925 0.9563 -55.7358 214.5553)" fill="#001928" cx="689.5" cy="293.6" rx="11" ry="11"/>
<line fill="none" stroke="#001928" stroke-width="4" stroke-miterlimit="10" x1="25.2" y1="69.2" x2="184" y2="19.5"/>
<line fill="none" stroke="#001928" stroke-width="4" stroke-miterlimit="10" x1="96" y1="167.8" x2="25.2" y2="69.2"/>
<ellipse transform="matrix(0.9474 -0.32 0.32 0.9474 -20.8215 11.7076)" fill="#001928" cx="25.2" cy="69.2" rx="25.2" ry="25.2"/>
<ellipse transform="matrix(0.9474 -0.32 0.32 0.9474 -48.6409 39.5315)" fill="#001928" cx="96" cy="167.8" rx="35.3" ry="35.3"/>
<path fill="#062842" d="M88.4,144.8c12.8-4.3,26.6,2.5,30.9,15.3c4.3,12.8-2.5,26.6-15.3,30.9c-12.8,4.3-26.6-2.5-30.9-15.3
	C68.8,162.9,75.7,149.1,88.4,144.8z M101.3,183c8.4-2.8,12.9-11.9,10.1-20.3c-2.8-8.4-11.9-12.9-20.3-10.1
	c-8.4,2.8-12.9,11.9-10.1,20.3c0,0,0,0,0,0.1C83.9,181.4,93,185.9,101.3,183L101.3,183z"/>
<ellipse transform="matrix(0.9474 -0.32 0.32 0.9474 3.4162 59.8921)" fill="#001928" cx="184" cy="19.5" rx="15.1" ry="15.1"/>
<line fill="none" stroke="#001928" stroke-width="4" stroke-miterlimit="10" x1="104.4" y1="461.6" x2="65.7" y2="519.8"/>
<line fill="none" stroke="#001928" stroke-width="4" stroke-miterlimit="10" x1="205.1" y1="367.2" x2="286.1" y2="411.5"/>
<line fill="none" stroke="#001928" stroke-width="4" stroke-miterlimit="10" x1="120.4" y1="374.6" x2="104.4" y2="461.6"/>
<line fill="none" stroke="#001928" stroke-width="4" stroke-miterlimit="10" x1="120.4" y1="374.6" x2="51.9" y2="393.4"/>
<line fill="none" stroke="#001928" stroke-width="4" stroke-miterlimit="10" x1="120.4" y1="374.6" x2="205.1" y2="367.2"/>
<line fill="none" stroke="#001928" stroke-width="4" stroke-miterlimit="10" x1="120.4" y1="374.6" x2="147.6" y2="288.9"/>
<ellipse transform="matrix(0.7114 -0.7028 0.7028 0.7114 -228.5211 192.7053)" fill="#001928" cx="120.4" cy="374.6" rx="22.3" ry="22.3"/>
<path fill="#062842" d="M109.4,385.3c-6-6-5.9-15.8,0.1-21.8c6-6,15.8-5.9,21.8,0.1c6,6,5.9,15.8-0.1,21.8c0,0,0,0,0,0
	C125.2,391.3,115.4,391.3,109.4,385.3z M127.6,367.4c-3.9-4-10.3-4-14.3-0.1c-4,3.9-4,10.3-0.1,14.3c3.9,4,10.3,4,14.2,0.1
	C131.4,377.7,131.5,371.3,127.6,367.4C127.6,367.3,127.6,367.3,127.6,367.4L127.6,367.4z"/>
<ellipse transform="matrix(0.7114 -0.7028 0.7028 0.7114 -294.7205 206.4382)" fill="#001928" cx="104" cy="462.1" rx="15.9" ry="15.9"/>
<ellipse transform="matrix(0.7114 -0.7028 0.7028 0.7114 -261.47 149.9855)" fill="#001928" cx="51.9" cy="393.4" rx="15.9" ry="15.9"/>
<ellipse transform="matrix(0.7114 -0.7028 0.7028 0.7114 -346.7479 196.0115)" fill="#001928" cx="65.3" cy="520.2" rx="9.6" ry="9.5"/>
<ellipse transform="matrix(0.7114 -0.7028 0.7028 0.7114 -160.4188 187.0858)" fill="#001928" cx="147.6" cy="288.9" rx="15.9" ry="15.9"/>
<ellipse transform="matrix(0.7114 -0.7028 0.7028 0.7114 -198.8728 250.0864)" fill="#001928" cx="205.1" cy="367.2" rx="15.9" ry="15.9"/>
<ellipse transform="matrix(0.7114 -0.7028 0.7028 0.7114 -206.1969 319.994)" fill="#001928" cx="286.5" cy="411.1" rx="9.5" ry="9.5"/>
<line fill="none" stroke="#001928" stroke-width="4" stroke-miterlimit="10" x1="406" y1="409.8" x2="526.6" y2="506.5"/>
<line fill="none" stroke="#001928" stroke-width="4" stroke-miterlimit="10" x1="500.6" y1="348.4" x2="406" y2="409.8"/>
<ellipse transform="matrix(0.6428 -0.766 0.766 0.6428 -168.8618 457.3807)" fill="#001928" cx="406" cy="409.8" rx="23.4" ry="23.4"/>
<ellipse transform="matrix(0.6428 -0.766 0.766 0.6428 -88.0472 507.9065)" fill="#001928" cx="500.6" cy="348.4" rx="32.8" ry="32.8"/>
<path fill="#062842" d="M483.5,333.8c8-9.6,22.3-10.8,31.9-2.8c9.6,8,10.8,22.3,2.8,31.9s-22.3,10.8-31.9,2.8c0,0,0,0,0,0
	C476.7,357.7,475.5,343.4,483.5,333.8z M489.5,338.8c-5.3,6.3-4.5,15.6,1.8,20.9c6.3,5.3,15.6,4.5,20.9-1.8
	c5.3-6.3,4.5-15.6-1.8-20.9c0,0,0,0,0,0C504.1,331.7,494.7,332.5,489.5,338.8C489.5,338.8,489.5,338.8,489.5,338.8L489.5,338.8z"/>
<ellipse transform="matrix(0.6428 -0.766 0.766 0.6428 -199.8401 584.3046)" fill="#001928" cx="526.6" cy="506.4" rx="14.1" ry="14.1"/>
</svg>

<?xml version="1.0" encoding="utf-8"?>
<!-- Generator: Adobe Illustrator 21.0.0, SVG Export Plug-In . SVG Version: 6.00 Build 0)  -->
<svg version="1.1" id="Layer_1" xmlns="http://www.w3.org/2000/svg" xmlns:xlink="http://www.w3.org/1999/xlink" x="0px" y="0px"
	 viewBox="0 0 916 535.3" style="enable-background:new 0 0 916 535.3;" xml:space="preserve">
<style type="text/css">
	.st0{fill:none;stroke:#001928;stroke-width:4;stroke-miterlimit:10;}
	.st1{fill:#001928;}
	.st2{fill:#062842;}
</style>
<title>Background</title>
<line class="st0" x1="451" y1="242.9" x2="515.8" y2="206.5"/>
<line class="st0" x1="381.6" y1="104.3" x2="321" y2="48.3"/>
<line class="st0" x1="377.4" y1="170.7" x2="381.6" y2="104.3"/>
<line class="st0" x1="451" y1="242.9" x2="391.2" y2="199.2"/>
<line class="st0" x1="315.5" y1="216.2" x2="359.2" y2="196.1"/>
<g>
	<path class="st1" d="M377,178.5c-5.4-0.3-10,3.7-10.3,9.1c-0.3,5.3,3.7,10,9.1,10.3c5.4,0.3,10-3.8,10.3-9.1
		C386.4,183.4,382.4,178.8,377,178.5z"/>
	<path class="st1" d="M377.7,166.9c-11.9-0.7-22.1,8.3-22.8,20.1s8.3,22.1,20.1,22.8s22.1-8.3,22.8-20.1S389.5,167.6,377.7,166.9z
		 M391.2,189.1c-0.5,8.2-7.5,14.4-15.7,13.9s-14.4-7.6-13.9-15.7c0.5-8.2,7.5-14.4,15.7-13.9S391.7,180.9,391.2,189.1z"/>
</g>
<ellipse transform="matrix(6.226542e-02 -0.9981 0.9981 6.226542e-02 253.8296 478.7067)" class="st1" cx="381.7" cy="104.3" rx="15.3" ry="15.3"/>
<ellipse transform="matrix(6.226542e-02 -0.9981 0.9981 6.226542e-02 180.5215 677.8601)" class="st1" cx="451" cy="242.9" rx="15.3" ry="15.3"/>
<ellipse transform="matrix(6.226542e-02 -0.9981 0.9981 6.226542e-02 80.0752 517.7585)" class="st1" cx="315.6" cy="216.3" rx="15.3" ry="15.3"/>
<ellipse transform="matrix(6.226542e-02 -0.9981 0.9981 6.226542e-02 252.8234 365.6325)" class="st1" cx="321" cy="48.3" rx="9.2" ry="9.2"/>
<ellipse transform="matrix(6.226542e-02 -0.9981 0.9981 6.226542e-02 277.5998 708.6047)" class="st1" cx="515.9" cy="206.6" rx="9.2" ry="9.2"/>
<line class="st0" x1="665.3" y1="415" x2="624.6" y2="488.4"/>
<line class="st0" x1="814.1" y1="507.1" x2="905.6" y2="524.9"/>
<line class="st0" x1="779" y1="441.3" x2="814.1" y2="507.1"/>
<line class="st0" x1="665.3" y1="415" x2="748.3" y2="421.5"/>
<line class="st0" x1="811.3" y1="360.3" x2="780.4" y2="406.7"/>
<g>
	<path class="st1" d="M764.3,413.6C764.3,413.6,764.3,413.6,764.3,413.6c-5.4,2.9-7.5,9.6-4.6,14.9c2.8,5.4,9.5,7.4,14.9,4.6
		s7.4-9.5,4.6-14.9C776.4,412.8,769.7,410.8,764.3,413.6z"/>
	<path class="st1" d="M790.7,411.8c-6.3-11.8-21-16.2-32.7-9.9c-11.8,6.3-16.2,21-9.9,32.7s21,16.2,32.7,9.9
		C792.6,438.2,797,423.6,790.7,411.8z M777.2,438.1c-8.2,4.4-18.3,1.3-22.6-6.9c-4.4-8.2-1.3-18.3,6.9-22.6
		c8.2-4.3,18.3-1.2,22.6,6.9C788.5,423.7,785.4,433.8,777.2,438.1z"/>
</g>
<ellipse transform="matrix(0.882 -0.4712 0.4712 0.882 -142.8359 443.4041)" class="st1" cx="814.1" cy="506.9" rx="17.3" ry="17.3"/>
<ellipse transform="matrix(0.882 -0.4712 0.4712 0.882 -117.0462 362.4549)" class="st1" cx="665.3" cy="415" rx="17.3" ry="17.3"/>
<ellipse transform="matrix(0.882 -0.4712 0.4712 0.882 -74.0337 424.7851)" class="st1" cx="811.3" cy="360.2" rx="17.3" ry="17.3"/>
<ellipse transform="matrix(0.882 -0.4712 0.4712 0.882 -140.4676 488.6424)" class="st1" cx="905.6" cy="524.8" rx="10.4" ry="10.4"/>
<ellipse transform="matrix(0.882 -0.4712 0.4712 0.882 -156.3845 351.9077)" class="st1" cx="624.6" cy="488.3" rx="10.4" ry="10.4"/>
<line class="st0" x1="735" y1="81.8" x2="696.5" y2="11.6"/>
<line class="st0" x1="777.4" y1="234.2" x2="689.3" y2="293"/>
<line class="st0" x1="797.4" y1="130.6" x2="735" y2="81.8"/>
<line class="st0" x1="819.5" y1="123.3" x2="832.3" y2="64.8"/>
<line class="st0" x1="806.7" y1="163.9" x2="777.4" y2="234.2"/>
<line class="st0" x1="830.1" y1="159.6" x2="887.5" y2="217.5"/>
<g>
	<path class="st1" d="M811.7,133.4c-6.1,1.9-9.5,8.3-7.7,14.4c1.9,6.1,8.3,9.5,14.4,7.7c6.1-1.9,9.5-8.3,7.7-14.4
		C824.3,135,817.8,131.6,811.7,133.4z"/>
	<path class="st1" d="M839.3,136.9c-4.1-13.5-18.4-21.1-31.9-17s-21,18.4-16.9,31.9s18.4,21.1,31.9,17
		C835.9,164.7,843.4,150.4,839.3,136.9z M820.2,161.2c-9.3,2.8-19.2-2.4-22-11.7s2.4-19.1,11.7-22c9.3-2.9,19.2,2.4,22,11.7
		C834.8,148.5,829.5,158.4,820.2,161.2z"/>
</g>
<ellipse transform="matrix(0.9563 -0.2925 0.2925 0.9563 8.3777 218.4847)" class="st1" cx="734.8" cy="81.2" rx="18.3" ry="18.3"/>
<ellipse transform="matrix(0.9563 -0.2925 0.2925 0.9563 17.4278 246.2581)" class="st1" cx="832.2" cy="64.8" rx="18.3" ry="18.3"/>
<ellipse transform="matrix(0.9563 -0.2925 0.2925 0.9563 27.2239 204.1573)" class="st1" cx="696.3" cy="11" rx="11" ry="10.9"/>
<ellipse transform="matrix(0.9563 -0.2925 0.2925 0.9563 -24.8139 269.1048)" class="st1" cx="887.5" cy="217.5" rx="18.3" ry="18.3"/>
<ellipse transform="matrix(0.9563 -0.2925 0.2925 0.9563 -34.5405 237.6411)" class="st1" cx="777.4" cy="234.3" rx="18.3" ry="18.3"/>
<ellipse transform="matrix(0.9563 -0.2925 0.2925 0.9563 -55.7353 214.5169)" class="st1" cx="689.5" cy="293.6" rx="11" ry="11"/>
<line class="st0" x1="25.2" y1="69.2" x2="184" y2="19.5"/>
<line class="st0" x1="79.5" y1="144.9" x2="25.2" y2="69.2"/>
<ellipse transform="matrix(0.9474 -0.32 0.32 0.9474 -20.8206 11.7022)" class="st2" cx="25.2" cy="69.2" rx="25.2" ry="25.2"/>
<g>
	<path class="st1" d="M129.4,156.5c-6.2-18.5-26.3-28.4-44.7-22.1c-18.5,6.2-28.4,26.3-22.1,44.7c6.2,18.5,26.3,28.4,44.7,22.1
		C125.8,195,135.7,175,129.4,156.5z M104,191c-12.8,4.3-26.6-2.5-30.9-15.3c-4.3-12.8,2.6-26.6,15.3-30.9
		c12.8-4.3,26.6,2.5,30.9,15.3C123.6,172.9,116.8,186.7,104,191z"/>
	<path class="st1" d="M91.1,152.6c-8.4,2.8-12.9,11.9-10.1,20.3c0,0,0,0,0,0.1c2.9,8.4,12,12.9,20.3,10c8.4-2.8,12.9-11.9,10.1-20.3
		C108.6,154.3,99.5,149.8,91.1,152.6z"/>
</g>
<ellipse transform="matrix(0.9474 -0.32 0.32 0.9474 3.4386 59.8986)" class="st1" cx="184" cy="19.5" rx="15.1" ry="15.1"/>
<line class="st0" x1="104.4" y1="461.6" x2="65.7" y2="519.8"/>
<line class="st0" x1="205.1" y1="367.2" x2="286.1" y2="411.5"/>
<line class="st0" x1="116.9" y1="393.4" x2="104.4" y2="461.6"/>
<line class="st0" x1="102.4" y1="379.5" x2="51.9" y2="393.4"/>
<line class="st0" x1="138.9" y1="373" x2="205.1" y2="367.2"/>
<line class="st0" x1="126" y1="357" x2="147.6" y2="288.9"/>
<g>
	<path class="st1" d="M113.3,367.3c-4,3.9-4,10.3-0.1,14.3c3.9,4,10.3,4,14.2,0.1c4-4,4.1-10.4,0.2-14.3
		C123.7,363.4,117.3,363.4,113.3,367.3z"/>
	<path class="st1" d="M136.3,358.9c-8.7-8.8-22.8-8.8-31.5-0.2c-8.8,8.7-8.8,22.8-0.2,31.5c8.7,8.8,22.8,8.8,31.5,0.2
		C144.8,381.8,144.9,367.7,136.3,358.9z M131.2,385.4c-6,5.9-15.8,5.9-21.8-0.1s-5.9-15.8,0.1-21.8s15.8-5.9,21.8,0.1
		S137.2,379.4,131.2,385.4z"/>
</g>
<ellipse transform="matrix(0.7114 -0.7028 0.7028 0.7114 -294.727 206.4716)" class="st1" cx="104" cy="462.1" rx="15.9" ry="15.9"/>
<ellipse transform="matrix(0.7114 -0.7028 0.7028 0.7114 -261.4732 150.0288)" class="st1" cx="51.9" cy="393.4" rx="15.9" ry="15.9"/>
<ellipse transform="matrix(0.7114 -0.7028 0.7028 0.7114 -346.7386 196.0244)" class="st1" cx="65.3" cy="520.2" rx="9.6" ry="9.5"/>
<ellipse transform="matrix(0.7114 -0.7028 0.7028 0.7114 -160.4154 187.1198)" class="st1" cx="147.6" cy="288.9" rx="15.9" ry="15.9"/>
<ellipse transform="matrix(0.7114 -0.7028 0.7028 0.7114 -198.8493 250.1125)" class="st1" cx="205.1" cy="367.2" rx="15.9" ry="15.9"/>
<ellipse transform="matrix(0.7114 -0.7028 0.7028 0.7114 -206.22 320.0243)" class="st1" cx="286.5" cy="411.1" rx="9.5" ry="9.5"/>
<line class="st0" x1="406" y1="409.8" x2="526.6" y2="506.5"/>
<line class="st0" x1="476.4" y1="364.1" x2="406" y2="409.8"/>
<ellipse transform="matrix(0.6428 -0.766 0.766 0.6428 -168.894 457.396)" class="st1" cx="406" cy="409.8" rx="23.4" ry="23.4"/>
<g>
	<path class="st1" d="M510.4,337c-6.3-5.3-15.7-4.5-20.9,1.8c-5.3,6.3-4.5,15.6,1.8,20.9s15.6,4.5,20.9-1.8S516.7,342.3,510.4,337z"
		/>
	<path class="st1" d="M521.7,323.3c-13.9-11.6-34.6-9.8-46.2,4c-11.6,13.9-9.8,34.6,4,46.2c13.9,11.6,34.6,9.8,46.2-4
		S535.6,334.9,521.7,323.3z M518.2,362.9c-8,9.6-22.3,10.8-31.9,2.8c-9.6-8-10.8-22.3-2.8-31.9c8-9.6,22.3-10.8,31.9-2.8
		C525,339,526.2,353.3,518.2,362.9z"/>
</g>
<ellipse transform="matrix(0.6428 -0.766 0.766 0.6428 -199.8668 584.249)" class="st1" cx="526.6" cy="506.4" rx="14.1" ry="14.1"/>
</svg>
